src/assets/lnkd.svg

<svg xmlns="http://www.w3.org/2000/svg" xmlns:xlink="http://www.w3.org/1999/xlink" viewBox="0,0,256,256" width="48px" height="48px" fill-rule="nonzero"><g fill="#ffffff" fill-rule="nonzero" stroke="none" stroke-width="1" stroke-linecap="butt" stroke-linejoin="miter" stroke-miterlimit="10" stroke-dasharray="" stroke-dashoffset="0" font-family="none" font-weight="none" font-size="none" text-anchor="none" style="mix-blend-mode: normal"><g transform="scale(10.66667,10.66667)"><path d="M5,3c-1.105,0 -2,0.895 -2,2v14c0,1.105 0.895,2 2,2h14c1.105,0 2,-0.895 2,-2v-14c0,-1.105 -0.895,-2 -2,-2zM5,5h14v14h-14zM7.7793,6.31641c-0.857,0 -1.37109,0.51517 -1.37109,1.20117c0,0.686 0.51416,1.19922 1.28516,1.19922c0.857,0 1.37109,-0.51322 1.37109,-1.19922c0,-0.686 -0.51416,-1.20117 -1.28516,-1.20117zM6.47656,10v7h2.52344v-7zM11.08203,10v7h2.52344v-3.82617c0,-1.139 0.81264,-1.30273 1.05664,-1.30273c0.244,0 0.89649,0.24473 0.89649,1.30273v3.82617h2.44141v-3.82617c0,-2.197 -0.97627,-3.17383 -2.19727,-3.17383c-1.221,0 -1.87226,0.40656 -2.19726,0.97656v-0.97656z"></path></g></g></svg>

<svg xmlns="http://www.w3.org/2000/svg" width="48" height="48" viewBox="0 0 256 256"><path fill="#fff" stroke-miterlimit="10" d="M5 3a2 2 0 0 0-2 2v14a2 2 0 0 0 2 2h14a2 2 0 0 0 2-2V5a2 2 0 0 0-2-2zm0 2h14v14H5zm2.78 1.316c-.858 0-1.372.516-1.372 1.202s.514 1.199 1.285 1.199c.857 0 1.371-.513 1.371-1.2 0-.685-.514-1.2-1.285-1.2M6.476 10v7H9v-7zm4.605 0v7h2.523v-3.826c0-1.14.813-1.303 1.057-1.303s.897.245.897 1.303V17H18v-3.826C18 10.977 17.024 10 15.803 10s-1.873.407-2.198.977V10z" font-family="none" font-size="none" font-weight="none" style="mix-blend-mode:normal" text-anchor="none" transform="scale(10.66667)"/></svg>
